X:920
T:Gubbstöt
T:efter Pelle Fors
R:Gubbstöt
O:Vikbolandet, Östergötland
S:efter Pelle Fors
B:Låtar efter Pelle Fors
Z:Björn Ek 2009-01-01
M:3/4
L:1/8
K:G
%
|:d>e d2 c2|B>d g2 b2|c'2 e2 e>f|g>b d2 d2   |
d>e d2 c2  |B>d g2 b2|c'2 e2 e>f|g/a/g/f/ g4:|
%
|:c'2 e2 e>f|g>b d2 d2|(3faf df a>f|(3gag d>g a>b|
c'2 e2 e>f|g>b d2 d2|(3faf df a>f|g2 g4:|
%
(:musicend:)

(:music:)
